X:1
T:Title
%%score { ( 1 3 ) | ( 2 4 ) }
L:1/8
Q:1/4=100
M:3/4
K:Eb
V:1 treble nm="Grand Piano"
V:3 treble 
V:2 bass 
V:4 bass 
V:1
 [GB]2 [Ac]2 [B,EG]2 | z2 [FA]4 | [Ac]2 [Bd]2 [B,DFA]2 | z2 [GB]4 | [EG]2 [B,EGB]2 [Ge]2 | %5
w: Grant~Colfax~Tullar * *|||||
 [Fd]2 [B,DF]2 [Ge]2 | [Fd]2 [Fd]2 [Ec]2 |[M:7/8] B-B-B- B- B2- B/ z/ | %8
w: |||
[M:3/4] [GB]2 [Ac]2 [B,EG]2 | z2 [FA]4 | [Ac]2 [Bd]2 [B,DFA]2 | z2 [GB]4 | [EG]2 [B,GB]2 [_Ge]2 | %13
w: |||||
 [Ge]2 [B,GB]2 [B,EG]2 | [B,DB]2 [CA]2 [A,DF]2 | [G,E]6 | [B,GB]2 [C_G=A]2 [B,F_A]2 | %17
w: ||||
 [B,FA]>[A,DF] [A,D]4 | [Dc]2 [Dd]2 [Dc]2 | c>B B4 | G2 [GB]2 [_Ge]2 | d>_d =d4 | %22
w: |||||
 [=Ae]2 [FAd]2 [EAc]2 | f>B B4 | [GB]2 [Gc]2 [EG]2 | [GB]>[FA] [FA]4 | [Ac]2 [Bd]2 [FA]2 | %27
w: |||||
 [Ac]>[GB] [GB]4 | [EG]2 [GB]2 [_Ge]2 | [Ge]2 [GB]2 [EG]2 | [DB]2 [DA]2 [DF]2 |[M:2/4] E4 |] %32
w: |||||
V:2
 E,,2 [G,B,E]2 G,2 | z z/[K:treble] F/ A,2[K:bass] A,2 | B,,2 [A,B,D]2 A,2 | %3
 z z/[K:treble] G/ G,2[K:bass] G,2 | E,,2 G,2 [G,B,E]2 | F,,2 F,2 [F,B,]2 | F,,2 G,2 =A,2 | %7
[M:7/8] B,-B,-B,- B,- B,3 |[M:3/4] E,,2 [G,B,E]2 G,2 | z z/[K:treble] F/ A,2[K:bass] A,2 | %10
 B,,2 [A,B,D]2 A,2 | z z/[K:treble] G/ G,2[K:bass] G,2 | E,,2 E,2 [E,=A,]2 | E,,2 E,2 E,2 | %14
 B,,2 [B,,F,]2 B,,2 | E,6 | E,2 E,2 D,2 | B,,>B,, B,,4 | [B,,A,]2 [B,,B,]2 [B,,A,]2 | %19
 [E,A,E]>[E,G,E] [E,G,E]4 | [E,B,E]2 [E,E]2 [E,B,]2 | [F,B,F]>[F,=A,F] [F,B,F]4 | [F,C]2 E,2 E,2 | %23
 [B,DA]>[B,DA] [B,DA]4 | [E,E]2 [E,E]2 [E,B,]2 | [B,,B,]>[B,,B,] [B,,B,]4 | %26
 [B,,B,]2 [B,,B,]2 [B,,B,]2 | [E,B,]>[E,B,] [E,B,]4 | [E,B,]2 [E,B,]2 [E,=A,]2 | %29
 [E,B,]2 [E,E]2 [E,B,]2 | [B,,B,]2 [B,,F,]2 [B,,A,]2 |[M:2/4] [E,G,]4 |] %32
V:3
 x6 | [GB]>A [B,D]2 [B,D]2 | x6 | [Ac]>B [B,E]2 [B,E]2 | x6 | x6 | x6 |[M:7/8] D2 z2 A3 | %8
[M:3/4] x6 | [GB]>A [B,D]2 [B,D]2 | x6 | [Ac]>B [B,E]2 [B,E]2 | x6 | x6 | x6 | x6 | x6 | x6 | x6 | %19
 x6 | x6 | x6 | x6 | x6 | x6 | x6 | x6 | x6 | x6 | x6 | x6 |[M:2/4] x4 |] %32
V:4
 x6 | B,,2[K:treble] z2[K:bass] z2 | x6 | E,,2[K:treble] z2[K:bass] z2 | x6 | x6 | x6 | %7
[M:7/8] z2 F2 B,,3 |[M:3/4] x6 | B,,2[K:treble] z2[K:bass] z2 | x6 | E,,2[K:treble] z2[K:bass] z2 | %12
 x6 | x6 | x6 | x6 | x6 | x6 | x6 | x6 | x6 | x6 | x6 | x6 | x6 | x6 | x6 | x6 | x6 | x6 | x6 | %31
[M:2/4] x4 |] %32

